svg/Mapbox-maki/rail-metro-18.svg

<?xml version="1.0" encoding="UTF-8" standalone="no"?>
<!-- Created with Inkscape (http://www.inkscape.org/) -->

<svg
   xmlns:dc="http://purl.org/dc/elements/1.1/"
   xmlns:cc="http://creativecommons.org/ns#"
   xmlns:rdf="http://www.w3.org/1999/02/22-rdf-syntax-ns#"
   xmlns:svg="http://www.w3.org/2000/svg"
   xmlns="http://www.w3.org/2000/svg"
   xmlns:sodipodi="http://sodipodi.sourceforge.net/DTD/sodipodi-0.dtd"
   xmlns:inkscape="http://www.inkscape.org/namespaces/inkscape"
   width="18"
   height="18"
   id="svg4619"
   version="1.1"
   inkscape:version="0.48.2 r9819"
   sodipodi:docname="rail-metro-18.svg">
  <defs
     id="defs4621" />
  <sodipodi:namedview
     id="base"
     pagecolor="#ffffff"
     bordercolor="#666666"
     borderopacity="1.0"
     inkscape:pageopacity="0.0"
     inkscape:pageshadow="2"
     inkscape:zoom="48.266282"
     inkscape:cx="9.5"
     inkscape:cy="9.4999402"
     inkscape:document-units="px"
     inkscape:current-layer="layer1"
     showgrid="true"
     showguides="false"
     inkscape:guide-bbox="true"
     inkscape:window-width="1313"
     inkscape:window-height="942"
     inkscape:window-x="181"
     inkscape:window-y="61"
     inkscape:window-maximized="0">
    <inkscape:grid
       type="xygrid"
       id="grid4627"
       empspacing="2"
       visible="true"
       enabled="true"
       snapvisiblegridlinesonly="true"
       color="#ff00ff"
       opacity="0.1254902"
       empcolor="#ff00ff"
       empopacity="0.25098039" />
    <sodipodi:guide
       orientation="0,1"
       position="7,18"
       id="guide4659" />
    <sodipodi:guide
       orientation="1,0"
       position="18,9"
       id="guide4661" />
    <sodipodi:guide
       orientation="0,1"
       position="16,17"
       id="guide4663" />
    <sodipodi:guide
       orientation="1,0"
       position="17,14"
       id="guide4665" />
    <sodipodi:guide
       orientation="1,0"
       position="0,16"
       id="guide4667" />
    <sodipodi:guide
       orientation="0,1"
       position="8,0"
       id="guide4669" />
    <sodipodi:guide
       orientation="1,0"
       position="2,10"
       id="guide4671" />
    <sodipodi:guide
       orientation="0,1"
       position="12,2"
       id="guide4673" />
    <sodipodi:guide
       orientation="0,1"
       position="12,16"
       id="guide3010" />
    <sodipodi:guide
       orientation="1,0"
       position="3,11.5"
       id="guide3012" />
    <sodipodi:guide
       orientation="0,1"
       position="12,3"
       id="guide3014" />
    <sodipodi:guide
       orientation="1,0"
       position="16,8.5"
       id="guide3016" />
    <sodipodi:guide
       orientation="1,0"
       position="9.5,9"
       id="guide3804" />
  </sodipodi:namedview>
  <metadata
     id="metadata4624">
    <rdf:RDF>
      <cc:Work
         rdf:about="">
        <dc:format>image/svg+xml</dc:format>
        <dc:type
           rdf:resource="http://purl.org/dc/dcmitype/StillImage" />
        <dc:title />
      </cc:Work>
    </rdf:RDF>
  </metadata>
  <g
     inkscape:label="Layer 1"
     inkscape:groupmode="layer"
     id="layer1"
     transform="translate(0,-1034.3622)">
    <path
       style="font-size:medium;font-style:normal;font-variant:normal;font-weight:normal;font-stretch:normal;text-indent:0;text-align:start;text-decoration:none;line-height:normal;letter-spacing:normal;word-spacing:normal;text-transform:none;direction:ltr;block-progression:tb;writing-mode:lr-tb;text-anchor:start;baseline-shift:baseline;color:#000000;fill:#ffffff;fill-opacity:1;stroke:none;stroke-width:2;marker:none;visibility:visible;display:inline;overflow:visible;enable-background:accumulate;font-family:Sans;-inkscape-font-specification:Sans;opacity:0.3"
       d="M 7.90625,1 C 7.4146662,1.046 6.9978709,1.5062 7,2 L 7,2.21875 C 5.9019027,2.48095 5,3.3283 5,4.5 c 0,2 0,4 0,6 0,0.602623 0.2308258,1.159247 0.59375,1.59375 C 5.2450204,12.248806 5.0028963,12.618364 5,13 c -0.5235845,5.2e-5 -0.9999476,0.476416 -1,1 l 0,1 c 5.24e-5,0.523584 0.4764155,0.999948 1,1 l 4,0 c 0.1633192,-0.0026 0.3258462,-0.04589 0.46875,-0.125 0.010416,1.63e-4 0.020834,1.63e-4 0.03125,0 0.1520176,0.08415 0.326265,0.127716 0.5,0.125 l 4,0 c 0.523584,-5.2e-5 0.999948,-0.476416 1,-1 l 0,-1 c -5.2e-5,-0.523584 -0.476416,-0.999948 -1,-1 -0.0081,-0.3885 -0.264748,-0.760591 -0.625,-0.90625 C 13.746291,11.656865 14,11.110359 14,10.5 c 0,-2 0,-4 0,-6 C 14,3.3283 13.098097,2.48095 12,2.21875 L 12,2 C 11.999948,1.4764 11.523584,1.0001 11,1 L 8,1 z M 8,5 11,5 11,5.5 11,5.75 11,6 8,6 8,5.75 8,5.5 z"
       transform="translate(0,1034.3622)"
       id="path3106"
       inkscape:connector-curvature="0"
       sodipodi:nodetypes="ccccccccccccccccccccccccccccccccccc" />
    <path
       style="fill:#444444;fill-opacity:1;stroke:none"
       d="M 8 2 L 8 3 L 7.5 3 C 6.669 3 6 3.669 6 4.5 L 6 9.5 L 6 10.5 C 6 11.331 6.669 12 7.5 12 L 11.5 12 C 12.331 12 13 11.331 13 10.5 L 13 9.5 L 13 4.5 C 13 3.669 12.331 3 11.5 3 L 11 3 L 11 2 L 8 2 z M 8 4 L 11 4 C 11.553621 4 12 4.446 12 5 L 12 5.5 L 12 5.75 L 12 7 L 7 7 L 7 5.75 L 7 5.5 L 7 5 C 7 4.446 7.4463787 4 8 4 z M 7 9 L 8.5 9 L 8.5 10.5 L 7 10.5 L 7 9 z M 10.5 9 L 12 9 L 12 10.5 L 10.5 10.5 L 10.5 9 z "
       transform="translate(0,1034.3622)"
       id="rect4041" />
    <path
       style="fill:#444444;fill-opacity:1;stroke:none"
       d="m 9,1047.3622 -3,0 0,1 -1,0 0,1 4,0 z"
       id="path3787-5"
       inkscape:connector-curvature="0"
       sodipodi:nodetypes="ccccccc" />
    <path
       sodipodi:nodetypes="ccccccc"
       inkscape:connector-curvature="0"
       id="path3122"
       d="m 10,1047.3622 3,0 0,1 1,0 0,1 -4,0 z"
       style="fill:#444444;fill-opacity:1;stroke:none" />
  </g>
</svg>

<svg xmlns="http://www.w3.org/2000/svg" viewBox="0 0 18 18"><g transform="translate(0-1034.36)"><g transform="translate(0 1034.36)"><path d="m7.906 1c-.492.046-.908.506-.906 1v.219c-1.098.262-2 1.11-2 2.281 0 2 0 4 0 6 0 .603.231 1.159.594 1.594-.349.155-.591.525-.594.906-.524 0-1 .476-1 1v1c0 .524.476 1 1 1h4c.163-.003.326-.046.469-.125.001 0 .021 0 .031 0 .152.084.326.128.5.125h4c.524 0 1-.476 1-1v-1c0-.524-.476-1-1-1-.008-.389-.265-.761-.625-.906.371-.437.625-.983.625-1.594 0-2 0-4 0-6 0-1.172-.902-2.02-2-2.281v-.219c0-.524-.476-1-1-1h-3zm.094 4h3v.5.25.25h-3v-.25-.25z" opacity=".3" color="#000" fill="#fff"/><path d="m8 2v1h-.5c-.831 0-1.5.669-1.5 1.5v5 1c0 .831.669 1.5 1.5 1.5h4c.831 0 1.5-.669 1.5-1.5v-1-5c0-.831-.669-1.5-1.5-1.5h-.5v-1h-3m0 2h3c.554 0 1 .446 1 1v.5.25 1.25h-5v-1.25-.25-.5c0-.554.446-1 1-1m-1 5h1.5v1.5h-1.5v-1.5m3.5 0h1.5v1.5h-1.5v-1.5" fill="#444"/></g><g fill="#444"><path d="m9 1047.36h-3v1h-1v1h4z"/><path d="m10 1047.36h3v1h1v1h-4z"/></g></g></svg>
